X: 38823
T: Sully's
R: jig
M: 6/8
K: Gmajor
|:~D3 GAB|AGD EGA|~G3 eGd|GAB AGE|
~D3 GAB|AGD EGA|GBe dBG|1 ABA G2E:|2 ABA GBd||
|:~e3 edB|def gde|dBG DEC|B,DG Bcd|
~e3 edB|def gde|dGA ~B3|cGA Bcd|
~e3 edB|def gde|dBG DEC|B,DG Bcd|
~G3 eGd|~G3 eGd|~G3 eGd|GAB AGE||

